X:2068
T:Twas once I loved a lass
T:'Ramsey town'
C:Shimmin
O:Isle of Man
S:Traditional
Z:Clague Collection
B:Kiaull Vannin #68
M:4/4 
L:1/4 
Q:70 
K:G
D|GD GD|G3/4A/4 B3/4c/4 dB|cB AG|D3/4E/4 F3/4G/4 AD|GG GD|G3/4A/4 B3/4c/4 dB|
ed cB|A3A|A3/2B/ cB/A/|dB/G/ A/F/D|Gc BA|A3||

